app/assets/images/micello-map-icons/foodcourt.svg

<svg xmlns="http://www.w3.org/2000/svg" width="30" height="30" viewBox="0 0 49.844 49.839" enable-background="new 0 0 49.844 49.839"><g><path d="M.172 24.926c0 13.64 11.103 24.741 24.748 24.741 13.651 0 24.752-11.101 24.752-24.741 0-13.651-11.101-24.754-24.752-24.754-13.645 0-24.748 11.103-24.748 24.754" fill="#fff"/><path d="M.172 24.926c0 13.64 11.103 24.741 24.748 24.741 13.651 0 24.752-11.101 24.752-24.741 0-13.651-11.101-24.754-24.752-24.754-13.645 0-24.748 11.103-24.748 24.754" stroke="#1B1A19" stroke-width=".344" fill="none"/><path d="M.172 24.926c0 13.64 11.103 24.741 24.748 24.741 13.651 0 24.752-11.101 24.752-24.741 0-13.651-11.101-24.754-24.752-24.754-13.645 0-24.748 11.103-24.748 24.754z" stroke="#030303" stroke-width=".153" fill="none"/><path d="M24.919 46.318c11.822 0 21.399-9.581 21.399-21.392 0-11.815-9.577-21.39-21.399-21.39-11.811 0-21.385 9.574-21.385 21.39-.001 11.81 9.574 21.392 21.385 21.392" fill="#372620"/><path d="M23.644 19.689c0 1.048-.966 2.181-2.211 2.181v17.794c0 2.52-3.44 2.52-3.44 0v-17.793c-1.202 0-2.261-.934-2.261-2.33v-9.792c0-.851 1.238-.89 1.238.032v7.24h1.023v-7.307c0-.787 1.181-.829 1.181.034v7.272h1.071v-7.292c0-.817 1.147-.856 1.147.027v7.265h1.046v-7.292c0-.817 1.206-.842 1.206.027v9.934z" fill="#fff"/><path d="M32.825 12.024v27.629c0 2.467-3.454 2.429-3.454 0v-10.964h-1.836v-16.665c0-3.871 5.29-3.871 5.29 0" fill="#fff"/></g></svg>

<?xml version="1.0" encoding="iso-8859-1"?>
<!-- Generator: Adobe Illustrator 17.0.0, SVG Export Plug-In . SVG Version: 6.00 Build 0)  -->
<!DOCTYPE svg PUBLIC "-//W3C//DTD SVG 1.1//EN" "http://www.w3.org/Graphics/SVG/1.1/DTD/svg11.dtd">
<svg version="1.1" xmlns="http://www.w3.org/2000/svg" xmlns:xlink="http://www.w3.org/1999/xlink" x="0px" y="0px"
	 width="30px" height="30px" viewBox="0 0 49.844 49.839" style="enable-background:new 0 0 49.844 49.839;"
	 xml:space="preserve">
<g id="foodcourt">
	<g>
		<path style="fill:#FFFFFF;" d="M0.172,24.926c0,13.64,11.103,24.741,24.748,24.741c13.651,0,24.752-11.101,24.752-24.741
			c0-13.651-11.101-24.754-24.752-24.754C11.275,0.172,0.172,11.275,0.172,24.926"/>
		<path style="fill:none;stroke:#1B1A19;stroke-width:0.344;" d="M0.172,24.926c0,13.64,11.103,24.741,24.748,24.741
			c13.651,0,24.752-11.101,24.752-24.741c0-13.651-11.101-24.754-24.752-24.754C11.275,0.172,0.172,11.275,0.172,24.926"/>
		<path style="fill:none;stroke:#030303;stroke-width:0.153;" d="M0.172,24.926c0,13.64,11.103,24.741,24.748,24.741
			c13.651,0,24.752-11.101,24.752-24.741c0-13.651-11.101-24.754-24.752-24.754C11.275,0.172,0.172,11.275,0.172,24.926z"/>
		<path style="fill:#372620;" d="M24.919,46.318c11.822,0,21.399-9.581,21.399-21.392c0-11.815-9.577-21.39-21.399-21.39
			c-11.811,0-21.385,9.574-21.385,21.39C3.533,36.736,13.108,46.318,24.919,46.318"/>
		<path style="fill:#FFFFFF;" d="M23.644,19.689c0,1.048-0.966,2.181-2.211,2.181v17.794c0,2.52-3.44,2.52-3.44,0V21.871
			c-1.202,0-2.261-0.934-2.261-2.33V9.749c0-0.851,1.238-0.89,1.238,0.032v7.24h1.023V9.714c0-0.787,1.181-0.829,1.181,0.034v7.272
			h1.071V9.728c0-0.817,1.147-0.856,1.147,0.027v7.265h1.046V9.728c0-0.817,1.206-0.842,1.206,0.027V19.689z"/>
		<path style="fill:#FFFFFF;" d="M32.825,12.024v27.629c0,2.467-3.454,2.429-3.454,0V28.689h-1.836V12.024
			C27.535,8.153,32.825,8.153,32.825,12.024"/>
	</g>
</g>
<g id="Layer_1">
</g>
</svg>
